X: 81
T: WALTZES: Munster Cloak Set
T: Munster Cloak
C: C: Trad. / Tommy Walsh / Phil Cunningham; S: Various
C: Set Leaders: Tania, Anton, Sophie
Z: Anton Zille ed., Oleg Naumov arr.; Alastair Wilson / laura nesbit / onscuba / Sergei Ejov at The Session
N: https://thesession.org/members/26966/sets/92389
R: Air
M: 3/4
L: 1/8
Q: 1/4=144
K: Gmaj
|:"G"G2 GA BG|"D"A2 AB cA|"G"G2 GA Bd|"C"c2 A2 "D/F#"d2|
"G (Em)"G2 GA BG|"D"A2 AB cA|"C"d2 de fd|1 "D"c2 A2 F2:|2 "D"c2 A2 f2||
|:"G (Em)"g3a gf|"D"d2 g2 a2|"G"b3 a g2|"D"f2 g2 a2|
"C (G)"b3 a g2|"D"f2 de fd|"C"dc Ad cA|1 "D"A2 G2 f2:|2 "D"A2 G2 F2||
T: Inis Oírr / Inisheer
K: Gmaj
|:"G"B3 A "(D/F#)"Bd|"Em"B2 BA Bd|"C"E3 B AB|"D"D3 B AG|
"G"B3 A "(D/F#)"Bd|"Em"B2 BA Bd|"C"G3 B "D/F#"A/G/F|1 "G"G3 D ED:|2 "G"G3 A Bd||
"Em"e3 f ed|"Bm"B3 A Bd|"Em"ef ed B/c/d|
"C"e3 A Bd|"Em"e2 ef ed|"G"B3 A Bd|"D"G3 B "D/F#"A/G/F|
"G"G2 GA Bd|"Em"e2 ef ed|"Bm"B2 BA Bd|"Em"gf ed B/c/d|
"C"e3 f gf|"Em"e2 ef ed|"G"B3 A Bd|"D"D3 B "D/F#"A/G/F|"G"G3 D ED||
T: Flatwater Fran (Gmaj)
R: Waltz
K: Gmaj
DE|:"G"G2 G2 DE|"G"G2 G2 Bd|"C"e2 d2 G2|"G"B4 DE|
"G"G2 G2 DE|"Am"A2 A2 GA|"Em"B2 AG ED|"C"E4 DE|
"G"G2 G2 DE|"G"G2 G2 Bd|"C"e2 d2 g2|"G"B4 dB|
"Am"A2 AG AB|"Em"AG E2 GE|"C"DE G2 "D7"G2|1 "G"G4 DE:|2 "G"G4 Bd||
|:"C"e2 d2 G2|"G"B4 Bd|"C"e2 d2 G2|"G"B4 Bd|
"C"e2 d2 g2|"Em"B2 dB AG|"Am"EA AG AB|"D"A4 Bd|
"C"e2 d2 g2|"G"B2 dB AG|"D7"A2 d3c|"Em"B3 B AG|
"Am"EA AG AB|"Em"AG E2 GE|"C"DE G2 "D7"G2|1 "G"G4 Bd:|2 "G"G4||
T: Flatwater Fran (Amaj)
K: Amaj
EF|:"A"A2 A2 EF|"A"A2 A2 ce|"D"f2 e2 A2|"A"c4 EF|
"A"A2 A2 EF|"Bm"B2 B2 AB|"F#m"c2 BA FE|"D"F4 EF|
"A"A2 A2 EF|"A"A2 A2 ce|"D"f2 e2 a2|"A"c4 ec|
"Bm"B2 BA Bc|"F#m"BA F2 AF|"D"EF A2 "E7"A2|1 "A"A4 EF:|2 "A"A4 ce||
|:"D"f2 e2 A2|"A"c4 ce|"D"f2 e2 A2|"A"c4 ce|
"D"f2 e2 a2|"F#m"c2 ec BA|"Bm"FB BA Bc|"E"B4 ce|
"D"f2 e2 a2|"A"c2 ec BA|"E7"B2 e3d|"F#m"c3 c BA|
"Bm"FB BA Bc|"F#m"BA F2 AF|"D"EF A2 "E7"A2|1 "A"A4 ce:|2 "A"A4||

